telma/img/buttons/base-plane/Swap.svg

<?xml version="1.0" encoding="UTF-8" standalone="no"?>
<!-- Created with Inkscape (http://www.inkscape.org/) -->
<svg
   xmlns:dc="http://purl.org/dc/elements/1.1/"
   xmlns:cc="http://creativecommons.org/ns#"
   xmlns:rdf="http://www.w3.org/1999/02/22-rdf-syntax-ns#"
   xmlns:svg="http://www.w3.org/2000/svg"
   xmlns="http://www.w3.org/2000/svg"
   xmlns:xlink="http://www.w3.org/1999/xlink"
   xmlns:sodipodi="http://sodipodi.sourceforge.net/DTD/sodipodi-0.dtd"
   xmlns:inkscape="http://www.inkscape.org/namespaces/inkscape"
   width="600"
   height="600"
   id="svg2"
   sodipodi:version="0.32"
   inkscape:version="0.46"
   version="1.0"
   sodipodi:docname="Swap.svg"
   inkscape:output_extension="org.inkscape.output.svg.inkscape"
   inkscape:export-filename="D:\Documents and Settings\Маша\Рабочий стол\TELMA.V20\Projects\Interfaces\Telbase\TelBasePanel\images\Swap.png"
   inkscape:export-xdpi="4.7978296"
   inkscape:export-ydpi="4.7978296">
  <defs
     id="defs4">
    <linearGradient
       inkscape:collect="always"
       id="linearGradient3391">
      <stop
         style="stop-color:#ff0000;stop-opacity:1;"
         offset="0"
         id="stop3393" />
      <stop
         style="stop-color:#ff0000;stop-opacity:0;"
         offset="1"
         id="stop3395" />
    </linearGradient>
    <linearGradient
       inkscape:collect="always"
       id="linearGradient3267">
      <stop
         style="stop-color:#ff0000;stop-opacity:1;"
         offset="0"
         id="stop3269" />
      <stop
         style="stop-color:#ff0000;stop-opacity:0;"
         offset="1"
         id="stop3271" />
    </linearGradient>
    <linearGradient
       inkscape:collect="always"
       xlink:href="#linearGradient3267"
       id="linearGradient3273"
       x1="123.15675"
       y1="130.17917"
       x2="131.75237"
       y2="121.43824"
       gradientUnits="userSpaceOnUse"
       gradientTransform="matrix(0.4886094,-3.0688775,0.4738435,3.1645097,142.81868,283.077)" />
    <linearGradient
       id="linearGradient3253">
      <stop
         style="stop-color:#ff0000;stop-opacity:1;"
         offset="0"
         id="stop3255" />
      <stop
         style="stop-color:#ff0000;stop-opacity:0;"
         offset="1"
         id="stop3257" />
    </linearGradient>
    <linearGradient
       inkscape:collect="always"
       xlink:href="#linearGradient3253"
       id="linearGradient3261"
       x1="-74.741104"
       y1="-86.035858"
       x2="78.513557"
       y2="-157.7892"
       gradientUnits="userSpaceOnUse" />
    <linearGradient
       id="linearGradient4618">
      <stop
         style="stop-color:#e3d85d;stop-opacity:0.77865613;"
         offset="0"
         id="stop4620" />
      <stop
         style="stop-color:#ffffff;stop-opacity:0;"
         offset="1"
         id="stop4622" />
    </linearGradient>
    <linearGradient
       id="linearGradient3176">
      <stop
         id="stop3178"
         offset="0"
         style="stop-color:#ff0000;stop-opacity:1;" />
      <stop
         id="stop3180"
         offset="1"
         style="stop-color:#00d63b;stop-opacity:0;" />
    </linearGradient>
    <linearGradient
       id="linearGradient3170">
      <stop
         style="stop-color:#ff0000;stop-opacity:1;"
         offset="0"
         id="stop3172" />
      <stop
         style="stop-color:#00d63b;stop-opacity:0;"
         offset="1"
         id="stop3174" />
    </linearGradient>
    <linearGradient
       id="linearGradient3164">
      <stop
         id="stop3166"
         offset="0"
         style="stop-color:#ff0000;stop-opacity:1;" />
      <stop
         id="stop3168"
         offset="1"
         style="stop-color:#00d63b;stop-opacity:0;" />
    </linearGradient>
    <linearGradient
       id="linearGradient5422">
      <stop
         style="stop-color:#ff0000;stop-opacity:1;"
         offset="0"
         id="stop5424" />
      <stop
         style="stop-color:#00d63b;stop-opacity:0;"
         offset="1"
         id="stop5426" />
    </linearGradient>
    <inkscape:perspective
       sodipodi:type="inkscape:persp3d"
       inkscape:vp_x="0 : 526.18109 : 1"
       inkscape:vp_y="6.1230318e-14 : 1000 : 0"
       inkscape:vp_z="744.09448 : 526.18109 : 1"
       inkscape:persp3d-origin="372.04724 : 350.78739 : 1"
       id="perspective10" />
    <linearGradient
       inkscape:collect="always"
       xlink:href="#linearGradient3391"
       id="linearGradient3397"
       x1="261.60715"
       y1="400.5"
       x2="261.60715"
       y2="76.889999"
       gradientUnits="userSpaceOnUse" />
  </defs>
  <sodipodi:namedview
     id="base"
     pagecolor="#ffffff"
     bordercolor="#666666"
     borderopacity="1.0"
     gridtolerance="10000"
     guidetolerance="10"
     objecttolerance="10"
     inkscape:pageopacity="0.0"
     inkscape:pageshadow="2"
     inkscape:zoom="1.4"
     inkscape:cx="-3.8715529"
     inkscape:cy="429.80213"
     inkscape:document-units="px"
     inkscape:current-layer="layer1"
     showgrid="false"
     showguides="true"
     inkscape:showpageshadow="false"
     inkscape:window-width="1029"
     inkscape:window-height="676"
     inkscape:window-x="27"
     inkscape:window-y="35"
     showborder="true">
    <inkscape:grid
       type="xygrid"
       visible="true"
       enabled="true"
       id="grid2393" />
  </sodipodi:namedview>
  <metadata
     id="metadata7">
    <rdf:RDF>
      <cc:Work
         rdf:about="">
        <dc:format>image/svg+xml</dc:format>
        <dc:type
           rdf:resource="http://purl.org/dc/dcmitype/StillImage" />
      </cc:Work>
    </rdf:RDF>
  </metadata>
  <g
     inkscape:label="Layer 1"
     inkscape:groupmode="layer"
     id="layer1">
    <rect
       ry="90"
       rx="90"
       y="10.602222"
       x="11.58176"
       height="576.74463"
       width="577.10175"
       id="rect2390"
       style="opacity:1;fill:none;fill-opacity:1;stroke:none;stroke-width:1;stroke-linecap:round;stroke-linejoin:miter;stroke-miterlimit:4;stroke-dasharray:none;stroke-dashoffset:0;stroke-opacity:1"
       inkscape:export-filename="P:\TELMA.V20\telma.v20_10_11\Projects\Interfaces\BaseInterface\Telbase\TelBasePanel\images\Swap.png"
       inkscape:export-xdpi="4.9935446"
       inkscape:export-ydpi="4.9935446" />
    <rect
       style="opacity:1;fill:none;fill-opacity:0;stroke:none;stroke-width:23.16965866000000000;stroke-linecap:round;stroke-linejoin:miter;stroke-miterlimit:4;stroke-dasharray:none;stroke-dashoffset:0;stroke-opacity:1"
       id="rect5264"
       width="577.10175"
       height="576.74463"
       x="11.581718"
       y="11.612374"
       rx="90"
       ry="90"
       inkscape:export-filename="D:\Documents and Settings\Маша\Рабочий стол\TELMA.V20\Projects\Interfaces\Telbase\TelBasePanel\images\Swap.png"
       inkscape:export-xdpi="4.7978296"
       inkscape:export-ydpi="4.7978296" />
  </g>
  <g
     inkscape:groupmode="layer"
     id="layer2"
     inkscape:label="Линия">
    <path
       style="fill:none;fill-rule:evenodd;stroke:#000000;stroke-width:30;stroke-linecap:round;stroke-linejoin:miter;stroke-miterlimit:4;stroke-dasharray:none;stroke-opacity:1"
       d="M 485.71429,80.796231 L 485.71429,503.48948"
       id="path2422" />
    <path
       id="path3367"
       d="M 120.00001,80.796231 L 120.00001,503.48948"
       style="fill:none;fill-rule:evenodd;stroke:#000000;stroke-width:30;stroke-linecap:round;stroke-linejoin:miter;stroke-miterlimit:4;stroke-dasharray:none;stroke-opacity:1" />
    <path
       style="fill:none;fill-rule:evenodd;stroke:#000000;stroke-width:20;stroke-linecap:square;stroke-linejoin:miter;stroke-miterlimit:4;stroke-dasharray:none;stroke-opacity:1"
       d="M 78.116529,437.14286 L 160.4549,437.14286"
       id="path3373" />
    <path
       id="path3375"
       d="M 78.116529,377.14287 L 160.4549,377.14287"
       style="fill:none;fill-rule:evenodd;stroke:#000000;stroke-width:20;stroke-linecap:square;stroke-linejoin:miter;stroke-miterlimit:4;stroke-dasharray:none;stroke-opacity:1" />
    <path
       style="fill:none;fill-rule:evenodd;stroke:#000000;stroke-width:20;stroke-linecap:square;stroke-linejoin:miter;stroke-miterlimit:4;stroke-dasharray:none;stroke-opacity:1"
       d="M 78.11653,271.42858 L 160.4549,271.42858"
       id="path3377" />
    <path
       id="path3379"
       d="M 442.40224,162.85715 L 524.74061,162.85715"
       style="fill:none;fill-rule:evenodd;stroke:#000000;stroke-width:20;stroke-linecap:square;stroke-linejoin:miter;stroke-miterlimit:4;stroke-dasharray:none;stroke-opacity:1" />
    <path
       id="path3383"
       d="M 442.40224,227.14286 L 524.74061,227.14286"
       style="fill:none;fill-rule:evenodd;stroke:#000000;stroke-width:20;stroke-linecap:square;stroke-linejoin:miter;stroke-miterlimit:4;stroke-dasharray:none;stroke-opacity:1" />
    <path
       id="path3385"
       d="M 445.25938,331.42858 L 527.59775,331.42858"
       style="fill:none;fill-rule:evenodd;stroke:#000000;stroke-width:20;stroke-linecap:square;stroke-linejoin:miter;stroke-miterlimit:4;stroke-dasharray:none;stroke-opacity:1" />
  </g>
  <g
     inkscape:groupmode="layer"
     id="layer4"
     inkscape:label="Strelki">
    <path
       sodipodi:type="star"
       style="opacity:1;fill:url(#linearGradient3261);fill-opacity:1;stroke:#000000;stroke-width:1;stroke-linecap:round;stroke-miterlimit:4;stroke-dasharray:none;stroke-opacity:1"
       id="path3487"
       sodipodi:sides="3"
       sodipodi:cx="-20"
       sodipodi:cy="-132.85715"
       sodipodi:r1="76.903938"
       sodipodi:r2="35.012089"
       sodipodi:arg1="-0.96046964"
       sodipodi:arg2="0.28773554"
       inkscape:flatsided="false"
       inkscape:rounded="0"
       inkscape:randomized="0"
       d="M 24.076354,-195.87691 L 13.572705,-122.92136 L 12.53854,-63.176023 L -45.390996,-108.75023 L -96.614894,-139.51851 L -28.181709,-166.89986 L 24.076354,-195.87691 z"
       transform="matrix(0.3732357,-0.9487573,0.797177,0.3975858,470.05328,243.69206)" />
    <path
       style="fill:url(#linearGradient3397);fill-rule:evenodd;stroke:#000000;stroke-width:1px;stroke-linecap:butt;stroke-linejoin:miter;stroke-opacity:1;fill-opacity:1"
       d="M 326.07142,187.85714 C 326.07142,187.85714 296.80358,186.06342 277.14286,190 C 257.3954,193.95396 246.9844,197.40284 231.27012,215.97427 C 215.55583,234.5457 214.9641,235.44689 208.57143,258.57143 C 204.6896,272.61338 197.14285,400 197.14285,400 C 197.14285,400 215.71428,344.28572 234.28571,304.28572 C 252.85714,264.28572 258.7339,262.43443 261.85442,257.82126 C 265.21755,252.84942 276.85848,242.15529 279.97616,239.9096 C 288.07481,234.07607 288.62376,233.83383 300,231.42857 C 321.1083,226.96568 325.71428,228.92857 325.71428,228.92857 L 326.07142,187.85714 z"
       id="path3389"
       sodipodi:nodetypes="cssscsssscc" />
  </g>
  <g
     inkscape:groupmode="layer"
     id="layer3"
     inkscape:label="Узел">
    <path
       sodipodi:type="arc"
       style="opacity:1;fill:#ffffff;fill-opacity:1;stroke:#ff0000;stroke-width:117.96363831;stroke-linecap:round;stroke-linejoin:miter;stroke-miterlimit:4;stroke-dasharray:none;stroke-dashoffset:0;stroke-opacity:1"
       id="path3195"
       sodipodi:cx="741.42859"
       sodipodi:cy="400"
       sodipodi:rx="304.28571"
       sodipodi:ry="282.85715"
       d="M 1045.7143,400 A 304.28571,282.85715 0 1 1 437.14288,400 A 304.28571,282.85715 0 1 1 1045.7143,400 z"
       transform="matrix(0.1225987,0,0,0.1318865,394.8161,455.81684)" />
    <path
       transform="matrix(0.1225987,0,0,0.1318865,394.98942,38.8473)"
       d="M 1045.7143,400 A 304.28571,282.85715 0 1 1 437.14288,400 A 304.28571,282.85715 0 1 1 1045.7143,400 z"
       sodipodi:ry="282.85715"
       sodipodi:rx="304.28571"
       sodipodi:cy="400"
       sodipodi:cx="741.42859"
       id="path3197"
       style="opacity:1;fill:#ffffff;fill-opacity:1;stroke:#ff0000;stroke-width:117.96363831;stroke-linecap:round;stroke-linejoin:miter;stroke-miterlimit:4;stroke-dasharray:none;stroke-dashoffset:0;stroke-opacity:1"
       sodipodi:type="arc" />
    <path
       transform="matrix(0.1225987,0,0,0.1318865,29.101817,455.81684)"
       d="M 1045.7143,400 A 304.28571,282.85715 0 1 1 437.14288,400 A 304.28571,282.85715 0 1 1 1045.7143,400 z"
       sodipodi:ry="282.85715"
       sodipodi:rx="304.28571"
       sodipodi:cy="400"
       sodipodi:cx="741.42859"
       id="path3369"
       style="opacity:1;fill:#ffffff;fill-opacity:1;stroke:#ff0000;stroke-width:117.96363831;stroke-linecap:round;stroke-linejoin:miter;stroke-miterlimit:4;stroke-dasharray:none;stroke-dashoffset:0;stroke-opacity:1"
       sodipodi:type="arc" />
    <path
       sodipodi:type="arc"
       style="opacity:1;fill:#ffffff;fill-opacity:1;stroke:#ff0000;stroke-width:117.96363831;stroke-linecap:round;stroke-linejoin:miter;stroke-miterlimit:4;stroke-dasharray:none;stroke-dashoffset:0;stroke-opacity:1"
       id="path3371"
       sodipodi:cx="741.42859"
       sodipodi:cy="400"
       sodipodi:rx="304.28571"
       sodipodi:ry="282.85715"
       d="M 1045.7143,400 A 304.28571,282.85715 0 1 1 437.14288,400 A 304.28571,282.85715 0 1 1 1045.7143,400 z"
       transform="matrix(0.1225987,0,0,0.1318865,29.275137,38.8473)" />
  </g>
</svg>

<svg xmlns="http://www.w3.org/2000/svg" xmlns:xlink="http://www.w3.org/1999/xlink" width="600" height="600"><defs><linearGradient id="A" x1="-74.741" y1="-86.036" x2="78.514" y2="-157.789" gradientUnits="userSpaceOnUse"><stop offset="0" stop-color="red"/><stop offset="1" stop-color="red" stop-opacity="0"/></linearGradient><linearGradient id="B" x1="261.607" y1="400.5" x2="261.607" y2="76.89" gradientUnits="userSpaceOnUse"><stop offset="0" stop-color="red"/><stop offset="1" stop-color="red" stop-opacity="0"/></linearGradient><path id="C" d="M523.019 508.571c0 20.603-16.702 37.305-37.305 37.305s-37.305-16.702-37.305-37.305 16.702-37.305 37.305-37.305 37.305 16.702 37.305 37.305z"/></defs><g fill="none" stroke="#000"><path d="M485.714 80.796v422.693M120 80.796v422.693" stroke-width="30" stroke-linecap="round"/><path d="M78.117 437.143h82.338m-82.338-60h82.338M78.117 271.429h82.338m281.947-108.572h82.338m-82.338 64.286h82.338m-79.481 104.286h82.338" stroke-width="20" stroke-linecap="square"/></g><path d="M24.076-195.877l-10.504 72.956-1.034 59.745-57.93-45.574-51.224-30.768 68.433-27.381 52.258-28.977z" transform="matrix(.373236 -.948757 .797177 .397586 470.05328 243.69206)" fill="url(#A)" stroke="#000"/><path d="M326.071 187.857s-29.268-1.794-48.929 2.143c-19.747 3.954-30.158 7.403-45.873 25.974s-16.306 19.473-22.699 42.597C204.69 272.613 197.143 400 197.143 400s18.571-55.714 37.143-95.714 24.448-41.851 27.569-46.464c3.363-4.972 15.004-15.666 18.122-17.912 8.099-5.834 8.648-6.076 20.024-8.481 21.108-4.463 25.714-2.5 25.714-2.5l.357-41.071z" fill="url(#B)" fill-rule="evenodd" stroke="#000"/><g fill="#fff" stroke="red" stroke-width="15.02"><use xlink:href="#C"/><use xlink:href="#C" x="0.174" y="-416.969"/><path d="M157.305 508.571c0 20.603-16.702 37.305-37.305 37.305s-37.305-16.702-37.305-37.305S99.397 471.266 120 471.266s37.305 16.702 37.305 37.305z"/><use xlink:href="#C" x="-365.541" y="-416.969"/></g></svg>
